assets/deploy-vercel.svg

<svg width="171" height="32" viewBox="0 0 171 32" fill="none" xmlns="http://www.w3.org/2000/svg">
<path d="M5.73184 0.5H165.268C168.136 0.5 170.5 2.94064 170.5 6V26C170.5 29.0594 168.136 31.5 165.268 31.5H5.73184C2.86367 31.5 0.5 29.0594 0.5 26V6C0.5 2.94064 2.86367 0.5 5.73184 0.5Z" fill="#1A1A1A" stroke="#363636"/>
<path d="M21.2894 6L31.3825 24H11.1964L21.2894 6Z" fill="white"/>
<path d="M44.216 21V10.312H47.128C47.9813 10.312 48.76 10.4027 49.464 10.584C50.1787 10.7547 50.7973 11.0427 51.32 11.448C51.8427 11.8533 52.248 12.4027 52.536 13.096C52.824 13.7787 52.968 14.6267 52.968 15.64C52.968 16.664 52.824 17.5227 52.536 18.216C52.248 18.8987 51.8427 19.448 51.32 19.864C50.7973 20.2693 50.1787 20.5627 49.464 20.744C48.76 20.9147 47.9813 21 47.128 21H44.216ZM45.72 19.736H47.096C47.6507 19.736 48.184 19.6933 48.696 19.608C49.2187 19.512 49.6827 19.3307 50.088 19.064C50.504 18.7867 50.8293 18.376 51.064 17.832C51.3093 17.2773 51.432 16.5467 51.432 15.64C51.432 14.7333 51.3093 14.0133 51.064 13.48C50.8293 12.936 50.504 12.5307 50.088 12.264C49.6827 11.9867 49.2187 11.8053 48.696 11.72C48.184 11.624 47.6507 11.576 47.096 11.576H45.72V19.736ZM58.2616 21.192C57.4296 21.192 56.7256 21.0107 56.1496 20.648C55.5736 20.2747 55.131 19.7787 54.8216 19.16C54.523 18.5307 54.3736 17.8267 54.3736 17.048C54.3736 16.2053 54.5443 15.48 54.8856 14.872C55.227 14.2533 55.6856 13.7787 56.2616 13.448C56.8483 13.1067 57.5043 12.936 58.2296 12.936C58.859 12.936 59.4136 13.064 59.8936 13.32C60.3736 13.5653 60.7683 13.9013 61.0776 14.328C61.3976 14.744 61.627 15.2187 61.7656 15.752C61.915 16.2853 61.9683 16.8347 61.9256 17.4H55.8136C55.835 18.0613 55.979 18.584 56.2456 18.968C56.523 19.352 56.8483 19.624 57.2216 19.784C57.595 19.9333 57.9416 20.008 58.2616 20.008C58.7096 20.008 59.083 19.9387 59.3816 19.8C59.691 19.6507 59.9363 19.4587 60.1176 19.224L61.4136 19.608C61.1256 20.0667 60.715 20.4453 60.1816 20.744C59.6483 21.0427 59.0083 21.192 58.2616 21.192ZM55.8296 16.328H60.5016C60.5016 15.9547 60.4056 15.5973 60.2136 15.256C60.0323 14.9147 59.771 14.6373 59.4296 14.424C59.099 14.2 58.699 14.088 58.2296 14.088C57.835 14.088 57.4616 14.1627 57.1096 14.312C56.7576 14.4613 56.4643 14.7013 56.2296 15.032C56.0056 15.3627 55.8723 15.7947 55.8296 16.328ZM63.5106 23.576V13.064H64.4866L64.8546 14.312C65.1 13.896 65.436 13.5653 65.8626 13.32C66.2893 13.064 66.812 12.936 67.4306 12.936C68.0386 12.936 68.5986 13.1013 69.1106 13.432C69.6333 13.752 70.0493 14.2213 70.3586 14.84C70.6786 15.448 70.8386 16.1893 70.8386 17.064C70.8386 17.928 70.6786 18.6693 70.3586 19.288C70.0493 19.9067 69.6333 20.3813 69.1106 20.712C68.5986 21.032 68.0386 21.192 67.4306 21.192C66.812 21.192 66.2893 21.0693 65.8626 20.824C65.436 20.568 65.1 20.2267 64.8546 19.8V23.576H63.5106ZM67.0786 20.04C67.7613 20.04 68.3053 19.7787 68.7106 19.256C69.1266 18.7333 69.3346 18.0027 69.3346 17.064C69.3346 16.1147 69.1266 15.384 68.7106 14.872C68.3053 14.3493 67.7613 14.088 67.0786 14.088C66.396 14.088 65.8466 14.3493 65.4306 14.872C65.0253 15.384 64.8226 16.1147 64.8226 17.064C64.8226 18.0027 65.0253 18.7333 65.4306 19.256C65.8466 19.7787 66.396 20.04 67.0786 20.04ZM74.4451 21C73.9438 21 73.5545 20.952 73.2771 20.856C73.0105 20.7493 72.8238 20.552 72.7171 20.264C72.6211 19.976 72.5731 19.56 72.5731 19.016V10.328H73.9171V18.792C73.9171 19.1973 73.9598 19.4693 74.0451 19.608C74.1305 19.7467 74.3598 19.816 74.7331 19.816H75.0371V21H74.4451ZM79.6973 21.192C79.2386 21.192 78.7853 21.112 78.3373 20.952C77.8893 20.792 77.4786 20.5467 77.1053 20.216C76.7426 19.8747 76.4493 19.4427 76.2253 18.92C76.0013 18.3973 75.8893 17.7787 75.8893 17.064C75.8893 16.3493 76.0013 15.7307 76.2253 15.208C76.4493 14.6853 76.7426 14.2587 77.1053 13.928C77.4786 13.5867 77.8893 13.336 78.3373 13.176C78.7853 13.016 79.2386 12.936 79.6973 12.936C80.1559 12.936 80.6093 13.016 81.0573 13.176C81.5159 13.336 81.9266 13.5867 82.2893 13.928C82.6626 14.2587 82.9559 14.6853 83.1693 15.208C83.3933 15.7307 83.5052 16.3493 83.5052 17.064C83.5052 17.7787 83.3933 18.3973 83.1693 18.92C82.9559 19.4427 82.6626 19.8747 82.2893 20.216C81.9266 20.5467 81.5159 20.792 81.0573 20.952C80.6093 21.112 80.1559 21.192 79.6973 21.192ZM79.6973 20.008C80.0813 20.008 80.4546 19.9067 80.8173 19.704C81.1799 19.4907 81.4786 19.1707 81.7133 18.744C81.9479 18.3067 82.0653 17.7467 82.0653 17.064C82.0653 16.3813 81.9479 15.8267 81.7133 15.4C81.4786 14.9627 81.1799 14.6427 80.8173 14.44C80.4546 14.2267 80.0813 14.12 79.6973 14.12C79.3239 14.12 78.9506 14.2267 78.5773 14.44C78.2146 14.6427 77.9159 14.9627 77.6813 15.4C77.4466 15.8267 77.3293 16.3813 77.3293 17.064C77.3293 17.7467 77.4466 18.3067 77.6813 18.744C77.9159 19.1707 78.2146 19.4907 78.5773 19.704C78.9506 19.9067 79.3239 20.008 79.6973 20.008ZM84.7014 23.576V22.392H85.2454C85.6294 22.392 85.9227 22.36 86.1254 22.296C86.328 22.2427 86.488 22.1147 86.6054 21.912C86.7334 21.72 86.856 21.4213 86.9734 21.016L84.1094 13.08H85.5974L87.5494 19.192L89.5014 13.08H90.9734L88.1574 21.352C87.9654 21.9173 87.768 22.36 87.5654 22.68C87.3734 23.0107 87.112 23.24 86.7814 23.368C86.4507 23.5067 85.9867 23.576 85.3894 23.576H84.7014ZM98.9891 21C98.4878 21 98.0985 20.952 97.8211 20.856C97.5545 20.7493 97.3678 20.552 97.2611 20.264C97.1651 19.976 97.1171 19.56 97.1171 19.016V14.136H95.7731V13.064H97.1171V11.064H98.4611V13.064H99.9971V14.136H98.4611V18.792C98.4611 19.1973 98.4985 19.4693 98.5731 19.608C98.6585 19.7467 98.8931 19.816 99.2771 19.816H99.9971V21H98.9891ZM105.057 21.192C104.598 21.192 104.145 21.112 103.697 20.952C103.249 20.792 102.838 20.5467 102.465 20.216C102.102 19.8747 101.809 19.4427 101.585 18.92C101.361 18.3973 101.249 17.7787 101.249 17.064C101.249 16.3493 101.361 15.7307 101.585 15.208C101.809 14.6853 102.102 14.2587 102.465 13.928C102.838 13.5867 103.249 13.336 103.697 13.176C104.145 13.016 104.598 12.936 105.057 12.936C105.515 12.936 105.969 13.016 106.417 13.176C106.875 13.336 107.286 13.5867 107.649 13.928C108.022 14.2587 108.315 14.6853 108.529 15.208C108.753 15.7307 108.865 16.3493 108.865 17.064C108.865 17.7787 108.753 18.3973 108.529 18.92C108.315 19.4427 108.022 19.8747 107.649 20.216C107.286 20.5467 106.875 20.792 106.417 20.952C105.969 21.112 105.515 21.192 105.057 21.192ZM105.057 20.008C105.441 20.008 105.814 19.9067 106.177 19.704C106.539 19.4907 106.838 19.1707 107.073 18.744C107.307 18.3067 107.425 17.7467 107.425 17.064C107.425 16.3813 107.307 15.8267 107.073 15.4C106.838 14.9627 106.539 14.6427 106.177 14.44C105.814 14.2267 105.441 14.12 105.057 14.12C104.683 14.12 104.31 14.2267 103.937 14.44C103.574 14.6427 103.275 14.9627 103.041 15.4C102.806 15.8267 102.689 16.3813 102.689 17.064C102.689 17.7467 102.806 18.3067 103.041 18.744C103.275 19.1707 103.574 19.4907 103.937 19.704C104.31 19.9067 104.683 20.008 105.057 20.008ZM117.777 21L114.113 10.312H115.761L118.657 19.24L121.569 10.312H123.217L119.537 21H117.777ZM127.121 21.192C126.289 21.192 125.585 21.0107 125.009 20.648C124.433 20.2747 123.99 19.7787 123.681 19.16C123.382 18.5307 123.233 17.8267 123.233 17.048C123.233 16.2053 123.404 15.48 123.745 14.872C124.086 14.2533 124.545 13.7787 125.121 13.448C125.708 13.1067 126.364 12.936 127.089 12.936C127.718 12.936 128.273 13.064 128.753 13.32C129.233 13.5653 129.628 13.9013 129.937 14.328C130.257 14.744 130.486 15.2187 130.625 15.752C130.774 16.2853 130.828 16.8347 130.785 17.4H124.673C124.694 18.0613 124.838 18.584 125.105 18.968C125.382 19.352 125.708 19.624 126.081 19.784C126.454 19.9333 126.801 20.008 127.121 20.008C127.569 20.008 127.942 19.9387 128.241 19.8C128.55 19.6507 128.796 19.4587 128.977 19.224L130.273 19.608C129.985 20.0667 129.574 20.4453 129.041 20.744C128.508 21.0427 127.868 21.192 127.121 21.192ZM124.689 16.328H129.361C129.361 15.9547 129.265 15.5973 129.073 15.256C128.892 14.9147 128.63 14.6373 128.289 14.424C127.958 14.2 127.558 14.088 127.089 14.088C126.694 14.088 126.321 14.1627 125.969 14.312C125.617 14.4613 125.324 14.7013 125.089 15.032C124.865 15.3627 124.732 15.7947 124.689 16.328ZM132.37 21V13.064H133.346L133.778 14.536C134.055 14.056 134.429 13.672 134.898 13.384C135.378 13.0853 135.949 12.936 136.61 12.936V14.328C136.535 14.328 136.455 14.328 136.37 14.328C136.295 14.328 136.221 14.3333 136.146 14.344C135.239 14.4187 134.605 14.7333 134.242 15.288C133.89 15.8427 133.714 16.6107 133.714 17.592V21H132.37ZM140.992 21.192C140.234 21.192 139.578 21.016 139.024 20.664C138.469 20.3013 138.042 19.8107 137.743 19.192C137.445 18.5733 137.296 17.864 137.296 17.064C137.296 16.2747 137.45 15.5707 137.76 14.952C138.08 14.3227 138.528 13.832 139.104 13.48C139.68 13.1173 140.357 12.936 141.136 12.936C141.85 12.936 142.464 13.112 142.976 13.464C143.488 13.816 143.872 14.2373 144.128 14.728L142.896 15.176C142.725 14.856 142.474 14.6 142.144 14.408C141.813 14.216 141.445 14.12 141.04 14.12C140.645 14.12 140.272 14.2267 139.92 14.44C139.568 14.6427 139.285 14.9627 139.072 15.4C138.858 15.8267 138.752 16.376 138.752 17.048C138.752 17.7093 138.858 18.264 139.072 18.712C139.296 19.1493 139.578 19.4747 139.92 19.688C140.272 19.9013 140.645 20.008 141.04 20.008C141.477 20.008 141.856 19.912 142.176 19.72C142.506 19.5173 142.757 19.2667 142.928 18.968L144.16 19.416C143.861 19.928 143.434 20.3547 142.88 20.696C142.325 21.0267 141.696 21.192 140.992 21.192ZM149.184 21.192C148.352 21.192 147.648 21.0107 147.072 20.648C146.496 20.2747 146.053 19.7787 145.743 19.16C145.445 18.5307 145.296 17.8267 145.296 17.048C145.296 16.2053 145.466 15.48 145.808 14.872C146.149 14.2533 146.608 13.7787 147.184 13.448C147.77 13.1067 148.426 12.936 149.152 12.936C149.781 12.936 150.336 13.064 150.816 13.32C151.296 13.5653 151.69 13.9013 152 14.328C152.32 14.744 152.549 15.2187 152.688 15.752C152.837 16.2853 152.89 16.8347 152.848 17.4H146.736C146.757 18.0613 146.901 18.584 147.168 18.968C147.445 19.352 147.77 19.624 148.144 19.784C148.517 19.9333 148.864 20.008 149.184 20.008C149.632 20.008 150.005 19.9387 150.304 19.8C150.613 19.6507 150.858 19.4587 151.04 19.224L152.336 19.608C152.048 20.0667 151.637 20.4453 151.104 20.744C150.57 21.0427 149.93 21.192 149.184 21.192ZM146.752 16.328H151.424C151.424 15.9547 151.328 15.5973 151.136 15.256C150.954 14.9147 150.693 14.6373 150.352 14.424C150.021 14.2 149.621 14.088 149.152 14.088C148.757 14.088 148.384 14.1627 148.032 14.312C147.68 14.4613 147.386 14.7013 147.152 15.032C146.928 15.3627 146.794 15.7947 146.752 16.328ZM156.305 21C155.803 21 155.414 20.952 155.137 20.856C154.87 20.7493 154.683 20.552 154.577 20.264C154.481 19.976 154.433 19.56 154.433 19.016V10.328H155.777V18.792C155.777 19.1973 155.819 19.4693 155.905 19.608C155.99 19.7467 156.219 19.816 156.593 19.816H156.897V21H156.305Z" fill="white"/>
</svg>

<svg xmlns="http://www.w3.org/2000/svg" width="171" height="32" fill="none"><path fill="#1A1A1A" stroke="#363636" d="M5.732.5h159.536c2.868 0 5.232 2.44 5.232 5.5v20c0 3.06-2.364 5.5-5.232 5.5H5.732C2.864 31.5.5 29.06.5 26V6C.5 2.94 2.864.5 5.732.5Z"/><path fill="#fff" d="m21.29 6 10.093 18H11.196zM44.216 21V10.312h2.912q1.28 0 2.336.272 1.072.256 1.856.864t1.216 1.648q.432 1.024.432 2.544 0 1.536-.432 2.576-.432 1.024-1.216 1.648a5 5 0 0 1-1.856.88 10 10 0 0 1-2.336.256zm1.504-1.264h1.376q.832 0 1.6-.128a3.7 3.7 0 0 0 1.392-.544q.624-.416.976-1.232.368-.832.368-2.192t-.368-2.16q-.352-.817-.976-1.216a3.4 3.4 0 0 0-1.392-.544 8.7 8.7 0 0 0-1.6-.144H45.72zm12.542 1.456q-1.248 0-2.112-.544a3.73 3.73 0 0 1-1.328-1.488q-.448-.944-.448-2.112 0-1.264.512-2.176.512-.928 1.376-1.424a3.84 3.84 0 0 1 1.968-.512q.944 0 1.664.384.72.367 1.184 1.008.48.624.688 1.424a4.7 4.7 0 0 1 .16 1.648h-6.112q.032.992.432 1.568.415.576.976.816.56.224 1.04.224.672 0 1.12-.208.463-.224.736-.576l1.296.384q-.432.688-1.232 1.136-.801.448-1.92.448m-2.432-4.864h4.672q0-.56-.288-1.072a2.17 2.17 0 0 0-.784-.832q-.497-.336-1.2-.336-.592 0-1.12.224-.528.225-.88.72-.337.496-.4 1.296m7.68 7.248V13.064h.977l.368 1.248a2.7 2.7 0 0 1 1.008-.992q.64-.384 1.568-.384.912 0 1.68.496.783.48 1.248 1.408.48.913.48 2.224 0 1.296-.48 2.224-.465.928-1.248 1.424-.768.48-1.68.48-.929 0-1.568-.368a2.8 2.8 0 0 1-1.008-1.024v3.776zm3.569-3.536q1.023 0 1.632-.784.624-.784.624-2.192 0-1.424-.624-2.192-.609-.784-1.632-.784-1.024 0-1.648.784-.609.768-.608 2.192 0 1.409.608 2.192.624.784 1.648.784m7.366.96q-.751 0-1.168-.144a.96.96 0 0 1-.56-.592q-.144-.432-.144-1.248v-8.688h1.344v8.464q0 .608.128.816t.688.208h.304V21zm5.252.192q-.688 0-1.36-.24a3.8 3.8 0 0 1-1.232-.736 3.8 3.8 0 0 1-.88-1.296q-.336-.784-.336-1.856t.336-1.856q.337-.785.88-1.28a3.6 3.6 0 0 1 1.232-.752q.672-.24 1.36-.24t1.36.24q.689.24 1.232.752.56.495.88 1.28.336.784.336 1.856t-.336 1.856a3.5 3.5 0 0 1-.88 1.296q-.543.495-1.232.736-.672.24-1.36.24m0-1.184q.576 0 1.12-.304.545-.32.896-.96.352-.656.352-1.68t-.352-1.664q-.351-.655-.896-.96a2.2 2.2 0 0 0-1.12-.32 2.24 2.24 0 0 0-1.12.32q-.543.304-.896.96-.351.64-.352 1.664 0 1.024.352 1.68.353.64.896.96.56.304 1.12.304m5.004 3.568v-1.184h.544q.576 0 .88-.096a.77.77 0 0 0 .48-.384q.192-.287.368-.896L84.11 13.08h1.488l1.952 6.112 1.952-6.112h1.472l-2.816 8.272q-.288.848-.592 1.328-.288.495-.784.688-.495.208-1.392.208zM98.99 21q-.751 0-1.168-.144a.96.96 0 0 1-.56-.592q-.144-.432-.144-1.248v-4.88h-1.344v-1.072h1.344v-2h1.344v2h1.536v1.072h-1.536v4.656q0 .608.112.816.128.208.704.208h.72V21zm6.068.192q-.688 0-1.36-.24a3.75 3.75 0 0 1-1.232-.736 3.8 3.8 0 0 1-.88-1.296q-.336-.784-.336-1.856t.336-1.856q.336-.785.88-1.28a3.6 3.6 0 0 1 1.232-.752q.672-.24 1.36-.24t1.36.24q.687.24 1.232.752.56.495.88 1.28.336.784.336 1.856t-.336 1.856a3.55 3.55 0 0 1-.88 1.296q-.545.495-1.232.736a4 4 0 0 1-1.36.24m0-1.184q.576 0 1.12-.304.543-.32.896-.96.351-.656.352-1.68 0-1.024-.352-1.664-.353-.655-.896-.96a2.2 2.2 0 0 0-1.12-.32q-.56 0-1.12.32-.545.304-.896.96-.352.64-.352 1.664t.352 1.68q.351.64.896.96.56.304 1.12.304m12.72.992-3.664-10.688h1.648l2.896 8.928 2.912-8.928h1.648L119.537 21zm9.344.192q-1.248 0-2.112-.544a3.7 3.7 0 0 1-1.328-1.488q-.448-.944-.448-2.112 0-1.264.512-2.176a3.6 3.6 0 0 1 1.376-1.424 3.84 3.84 0 0 1 1.968-.512q.944 0 1.664.384.72.367 1.184 1.008.48.624.688 1.424.224.8.16 1.648h-6.112q.031.992.432 1.568.416.576.976.816.56.224 1.04.224.672 0 1.12-.208.464-.224.736-.576l1.296.384q-.432.688-1.232 1.136t-1.92.448m-2.432-4.864h4.672q0-.56-.288-1.072a2.17 2.17 0 0 0-.784-.832q-.496-.336-1.2-.336-.592 0-1.12.224-.528.225-.88.72-.336.496-.4 1.296M132.37 21v-7.936h.976l.432 1.472a3.2 3.2 0 0 1 1.12-1.152q.72-.448 1.712-.448v1.392h-.24q-.112 0-.224.016-1.36.113-1.904.944-.528.832-.528 2.304V21zm8.622.192q-1.137 0-1.968-.528a3.6 3.6 0 0 1-1.281-1.472q-.447-.928-.447-2.128 0-1.184.464-2.112.48-.944 1.344-1.472.864-.544 2.032-.544 1.071 0 1.84.528.768.528 1.152 1.264l-1.232.448a1.93 1.93 0 0 0-.752-.768 2.16 2.16 0 0 0-1.104-.288q-.592 0-1.12.32-.528.304-.848.96-.32.64-.32 1.648 0 .992.32 1.664.335.656.848.976.528.32 1.12.32.656 0 1.136-.288.495-.304.752-.752l1.232.448a3.7 3.7 0 0 1-1.28 1.28q-.832.495-1.888.496m8.192 0q-1.248 0-2.112-.544a3.73 3.73 0 0 1-1.329-1.488q-.447-.944-.447-2.112 0-1.264.512-2.176a3.6 3.6 0 0 1 1.376-1.424 3.84 3.84 0 0 1 1.968-.512q.944 0 1.664.384.72.367 1.184 1.008.48.624.688 1.424.223.8.16 1.648h-6.112q.031.992.432 1.568.415.576.976.816.56.224 1.04.224.672 0 1.12-.208.463-.224.736-.576l1.296.384q-.432.688-1.232 1.136-.801.448-1.92.448m-2.432-4.864h4.672q0-.56-.288-1.072a2.2 2.2 0 0 0-.784-.832q-.496-.336-1.2-.336-.592 0-1.12.224-.528.225-.88.72-.337.496-.4 1.296M156.305 21q-.753 0-1.168-.144a.96.96 0 0 1-.56-.592q-.144-.432-.144-1.248v-8.688h1.344v8.464q0 .608.128.816.127.208.688.208h.304V21z"/></svg>
